src/images/home/phone.svg

<svg width="27" height="27" viewBox="0 0 27 27" fill="none" xmlns="http://www.w3.org/2000/svg">
<path d="M24.8684 17.7774C23.2029 17.7774 21.5716 17.5173 20.0255 17.0071C19.2709 16.7471 18.414 16.9475 17.9181 17.4534L14.8529 19.7683C11.3357 17.8911 9.0848 15.6415 7.23319 12.15L9.48553 9.15727C10.0525 8.59027 10.2558 7.76035 10.0128 6.98306C9.49832 5.427 9.23687 3.79421 9.23687 2.13158C9.23687 0.956347 8.28052 0 7.10529 0H2.13158C0.956347 0 0 0.956347 0 2.13158C0 15.8433 11.1567 27 24.8684 27C26.0437 27 27 26.0437 27 24.8684V19.909C27 18.7337 26.0437 17.7774 24.8684 17.7774Z" fill="white"/>
</svg>

<svg width="27" height="27" fill="none" xmlns="http://www.w3.org/2000/svg"><path d="M24.868 17.777c-1.665 0-3.296-.26-4.842-.77-.755-.26-1.612-.06-2.108.446l-3.065 2.315c-3.517-1.877-5.768-4.127-7.62-7.618l2.253-2.993a2.15 2.15 0 00.527-2.174 15.429 15.429 0 01-.776-4.851A2.134 2.134 0 007.105 0H2.132A2.134 2.134 0 000 2.132C0 15.843 11.157 27 24.868 27A2.134 2.134 0 0027 24.868V19.91a2.134 2.134 0 00-2.132-2.132z" fill="#fff"/></svg>
